dist/icons/square-o/fax.svg

<svg xmlns="http://www.w3.org/2000/svg" viewBox="0 0 100 100"><style>.st1{fill:#fea500}</style><path fill="#fff" d="M0 0h100v100H0z"/><path class="st1" d="M100 100H0V0h100v100zM9.7 90h80.7V10H9.7"/><path class="st1" d="M42.8 41.9V26.3c0-1.6 1.3-2.8 2.8-2.8h17.7l9.1 9.1v9.2c0 .3-.3.6-.6.6h-3.1c-.3 0-.6-.3-.6-.6v-6.2h-5.8c-1.2 0-2.1-.9-2.1-2.1v-5.6H47.1v14c0 .3-.3.6-.6.6h-3.1c-.3 0-.6-.3-.6-.6zm0 33.6V47.8c0-.6.4-1 1-1h30.6c.6 0 1 .4 1 1V71c0 3-2.5 5.5-5.5 5.5H44c-.8 0-1.2-.4-1.2-1zm21.5-21.4c0 1.3 1 2.2 2.2 2.2s2.2-1 2.2-2.2c0-1.3-1-2.2-2.2-2.2-1.1-.2-2.2.8-2.2 2.2zm0 7.6c0 1.3 1 2.2 2.2 2.2 1.3 0 2.2-1 2.2-2.2s-1-2.2-2.2-2.4c-1.1 0-2.2 1-2.2 2.4zm-7.5-7.6c0 1.2 1 2.2 2.2 2.2 1.2 0 2.2-1 2.2-2.2 0-1.2-1-2.2-2.2-2.2-1.2-.2-2.2.8-2.2 2.2zm0 7.6c0 1.2 1 2.2 2.2 2.2 1.3 0 2.2-1 2.2-2.2 0-1.3-1-2.2-2.2-2.4-1.2 0-2.2 1-2.2 2.4zm0 7.5c0 1.2 1 2.2 2.2 2.2 1.3 0 2.2-1 2.2-2.2 0-1.2-1-2.2-2.2-2.2-1.2 0-2.2 1-2.2 2.2zm-7.6-15.1c0 1.3 1 2.2 2.2 2.2 1.2 0 2.2-1 2.2-2.2 0-1.3-1-2.2-2.2-2.2-1.3-.2-2.2.8-2.2 2.2zm0 7.6c0 1.3 1 2.2 2.2 2.2 1.3 0 2.2-1 2.2-2.2 0-1.3-1-2.2-2.2-2.4-1.2 0-2.2 1-2.2 2.4zm0 7.5c0 1.2 1 2.2 2.2 2.2 1.3 0 2.2-1 2.2-2.2 0-1.2-1-2.2-2.2-2.2-1.3 0-2.2 1-2.2 2.2zM30 76.5h7.3c.6 0 1-.4 1-1V40.9c0-.6-.4-1-1-1h-5.8c-3.9 0-7 3.1-7 7v24.3c0 2.8 2.4 5.3 5.5 5.3z"/></svg>

<svg xmlns="http://www.w3.org/2000/svg" viewBox="0 0 100 100"><style type="text/css">  
	.st0{fill:#FFFFFF;}
	.st1{fill:#FEA500;}
</style><rect class="st0" width="100" height="100"/><path class="st1" d="M100 100H0V0h100V100zM9.7 90h80.7V10H9.7"/><path class="st1" d="M42.8 41.9V26.3c0-1.6 1.3-2.8 2.8-2.8h17.7l9.1 9.1v9.2c0 0.3-0.3 0.6-0.6 0.6h-3.1c-0.3 0-0.6-0.3-0.6-0.6v-6.2h-5.8c-1.2 0-2.1-0.9-2.1-2.1v-5.6H47.1v14c0 0.3-0.3 0.6-0.6 0.6h-3.1C43.1 42.5 42.8 42.2 42.8 41.9zM42.8 75.5V47.8c0-0.6 0.4-1 1-1h30.6c0.6 0 1 0.4 1 1V71c0 3-2.5 5.5-5.5 5.5H44C43.2 76.5 42.8 76.1 42.8 75.5zM64.3 54.1c0 1.3 1 2.2 2.2 2.2s2.2-1 2.2-2.2c0-1.3-1-2.2-2.2-2.2C65.4 51.7 64.3 52.7 64.3 54.1zM64.3 61.7c0 1.3 1 2.2 2.2 2.2 1.3 0 2.2-1 2.2-2.2s-1-2.2-2.2-2.4C65.4 59.3 64.3 60.3 64.3 61.7zM56.8 54.1c0 1.2 1 2.2 2.2 2.2 1.2 0 2.2-1 2.2-2.2 0-1.2-1-2.2-2.2-2.2C57.8 51.7 56.8 52.7 56.8 54.1zM56.8 61.7c0 1.2 1 2.2 2.2 2.2 1.3 0 2.2-1 2.2-2.2 0-1.3-1-2.2-2.2-2.4C57.8 59.3 56.8 60.3 56.8 61.7zM56.8 69.2c0 1.2 1 2.2 2.2 2.2 1.3 0 2.2-1 2.2-2.2 0-1.2-1-2.2-2.2-2.2C57.8 67 56.8 68 56.8 69.2zM49.2 54.1c0 1.3 1 2.2 2.2 2.2 1.2 0 2.2-1 2.2-2.2 0-1.3-1-2.2-2.2-2.2C50.1 51.7 49.2 52.7 49.2 54.1zM49.2 61.7c0 1.3 1 2.2 2.2 2.2 1.3 0 2.2-1 2.2-2.2 0-1.3-1-2.2-2.2-2.4C50.2 59.3 49.2 60.3 49.2 61.7zM49.2 69.2c0 1.2 1 2.2 2.2 2.2 1.3 0 2.2-1 2.2-2.2 0-1.2-1-2.2-2.2-2.2C50.1 67 49.2 68 49.2 69.2zM30 76.5h7.3c0.6 0 1-0.4 1-1V40.9c0-0.6-0.4-1-1-1h-5.8c-3.9 0-7 3.1-7 7v24.3C24.5 74 26.9 76.5 30 76.5z"/></svg>
